WeatherApp/ClientApp/src/assets/icons/rain.svg

<svg width="33" height="21" viewBox="0 0 33 21" fill="none" xmlns="http://www.w3.org/2000/svg">
<g clip-path="url(#clip0)">
<path d="M23.5489 10.289C23.4039 10.4176 22.56 11.4972 22.2032 12.0071C21.8407 12.5261 21.484 13.1601 21.3709 13.4839C21.3013 13.6815 21.3013 14.1684 21.3709 14.3728C21.5826 14.9953 22.2264 15.5074 23.0153 15.6751C23.2792 15.7302 23.9694 15.7302 24.2333 15.6751C24.8714 15.5396 25.4369 15.1698 25.7153 14.7059C25.8835 14.4279 25.927 14.2717 25.927 13.9249C25.927 13.6034 25.898 13.4839 25.7356 13.144C25.6486 12.9625 25.2281 12.2643 25.1005 12.0875C25.0628 12.0369 24.9294 11.8509 24.8018 11.674C24.4741 11.2192 23.807 10.3832 23.691 10.2775C23.6301 10.227 23.6185 10.227 23.5489 10.289Z" fill="#57ADDD"/>
</g>
<path d="M11.5745 9.38049C11.2683 9.65203 9.48668 11.931 8.73361 13.0075C7.96829 14.1033 7.21522 15.4416 6.97644 16.1253C6.8295 16.5423 6.8295 17.5703 6.97644 18.0018C7.42339 19.3159 8.78259 20.3972 10.4479 20.7511C11.0051 20.8675 12.4622 20.8675 13.0194 20.7511C14.3663 20.465 15.5602 19.6844 16.148 18.7049C16.5031 18.1182 16.5949 17.7885 16.5949 17.0563C16.5949 16.3774 16.5337 16.1253 16.1908 15.4077C16.0072 15.0246 15.1194 13.5505 14.85 13.1772C14.7704 13.0705 14.4888 12.6777 14.2194 12.3044C13.5275 11.3443 12.1194 9.57929 11.8745 9.35624C11.7459 9.24957 11.7214 9.24957 11.5745 9.38049Z" fill="#57ADDD"/>
<g clip-path="url(#clip1)">
<path d="M18.2874 1.15923C18.0941 1.33073 16.9688 2.77008 16.4932 3.44995C16.0098 4.14206 15.5342 4.9873 15.3834 5.41911C15.2906 5.68248 15.2906 6.33172 15.3834 6.60428C15.6657 7.4342 16.5241 8.11713 17.5759 8.34069C17.9278 8.41419 18.8481 8.41419 19.2 8.34069C20.0507 8.16 20.8047 7.66695 21.1759 7.04833C21.4002 6.67778 21.4582 6.46953 21.4582 6.0071C21.4582 5.57835 21.4196 5.41911 21.203 4.96586C21.087 4.72393 20.5263 3.79294 20.3562 3.55713C20.3059 3.48976 20.128 3.2417 19.9579 3.00589C19.5209 2.39952 18.6316 1.28479 18.4769 1.14392C18.3957 1.07654 18.3802 1.07654 18.2874 1.15923Z" fill="#57ADDD"/>
</g>
<defs>
<clipPath id="clip0">
<rect x="19.3031" y="9.91696" width="9.39645" height="5.94882" fill="white"/>
</clipPath>
<clipPath id="clip1">
<rect x="12.6263" y="0.663147" width="12.5286" height="7.93176" fill="white"/>
</clipPath>
</defs>
</svg>

<svg xmlns="http://www.w3.org/2000/svg" width="33" height="21" fill="none" xmlns:v="https://vecta.io/nano"><g clip-path="url(#A)"><path d="M23.55 10.29c-.145.13-.99 1.208-1.346 1.718-.363.52-.72 1.153-.832 1.477a1.92 1.92 0 0 0 0 .889c.212.623.856 1.135 1.644 1.302a4.51 4.51 0 0 0 1.218 0c.638-.136 1.204-.505 1.482-.97a1.24 1.24 0 0 0 .212-.781c0-.32-.03-.44-.19-.78-.087-.18-.508-.88-.635-1.056l-.3-.414-1.11-1.396c-.06-.05-.072-.05-.142.01z" fill="#57addd"/></g><path d="M11.575 9.38c-.306.272-2.088 2.55-2.84 3.627-.765 1.096-1.518 2.434-1.757 3.118-.147.417-.147 1.445 0 1.877.447 1.314 1.806 2.395 3.47 2.75.557.116 2.014.116 2.57 0 1.347-.286 2.54-1.067 3.13-2.046.355-.587.447-.916.447-1.65 0-.68-.06-.93-.404-1.65-.184-.383-1.07-1.857-1.34-2.23l-.63-.873-2.345-2.948c-.13-.107-.153-.107-.3.024z" fill="#57addd"/><g clip-path="url(#B)"><path d="M18.287 1.16c-.193.172-1.32 1.61-1.794 2.29-.483.692-.96 1.537-1.1 1.97a2.56 2.56 0 0 0 0 1.185c.282.83 1.14 1.513 2.193 1.736.352.073 1.272.073 1.624 0 .85-.18 1.605-.674 1.976-1.292.224-.37.282-.58.282-1.04 0-.43-.04-.588-.255-1.04-.116-.242-.677-1.173-.847-1.41l-.398-.55-1.48-1.862c-.08-.067-.097-.067-.19.015z" fill="#57addd"/></g><defs><clipPath id="A"><path fill="#fff" d="M19.303 9.917H28.7v5.95h-9.396z"/></clipPath><clipPath id="B"><path fill="#fff" d="M12.626.663h12.53v7.932h-12.53z"/></clipPath></defs></svg>
